svgs/sharp-duotone-regular/octagon-minus.svg

<svg xmlns="http://www.w3.org/2000/svg" viewBox="0 0 512 512"><!--! Font Awesome Pro 6.7.2 by @fontawesome - https://fontawesome.com License - https://fontawesome.com/license (Commercial License) Copyright 2024 Fonticons, Inc. --><defs><style>.fa-secondary{opacity:.4}</style></defs><path class="fa-secondary" d="M48 179.9l0 152.2L179.9 464l152.2 0L464 332.1l0-152.2L332.1 48 179.9 48 48 179.9zM160 232l24 0 144 0 24 0 0 48-24 0-144 0-24 0 0-48z"/><path class="fa-primary" d="M48 332.1l0-152.2L179.9 48l152.2 0L464 179.9l0 152.2L332.1 464l-152.2 0L48 332.1zM160 0L0 160 0 352 160 512l192 0L512 352l0-192L352 0 160 0zm24 232l-24 0 0 48 24 0 144 0 24 0 0-48-24 0-144 0z"/></svg>

<svg xmlns="http://www.w3.org/2000/svg" viewBox="0 0 512 512"><!--! Font Awesome Pro 7.1.0 by @fontawesome - https://fontawesome.com License - https://fontawesome.com/license (Commercial License) Copyright 2025 Fonticons, Inc. --><path opacity=".4" fill="currentColor" d="M48 179.9L48 332.1 179.9 464 332.1 464 464 332.1 464 179.9 332.1 48 179.9 48 48 179.9zM144 232l224 0 0 48-224 0 0-48z"/><path fill="currentColor" d="M48 332.1L48 179.9 179.9 48 332.1 48 464 179.9 464 332.1 332.1 464 179.9 464 48 332.1zM160 0L0 160 0 352 160 512 352 512 512 352 512 160 352 0 160 0zm8 232l-24 0 0 48 224 0 0-48-200 0z"/></svg>
